X:1
T:Title
%%score 1 { 2 | 3 }
L:1/8
Q:1/4=90
M:3/4
K:F
V:1 treble nm="Grand Piano, Soprano"
V:2 treble nm="Choir Pad, Tijuana, 87.87.77.77"
V:3 bass 
V:1
 [FA]>F [FB]3 [FA] | [CG]>[CF] [FA]2 [EG]2 | [EG]>[FA] [GB]3 [EG] | [FA]>[Fd] [Fc]4 | %4
w: By~J.~Howard~Entwisle,~1901 * * *||||
 [FA]>F [FB]3 [FA] | [CG]>[CF] [FA]2 [EG]2 | [EG]>[FA] [Ac][GB] [FA]2 | [EG]2 F4 | %8
w: ||||
 [Fc]>[Fc] [Fd]3 [Fd] | [FB]>[Fd] [Fc]4 | [Fc]>[Fc] [Fd][Fd] [Fc]2 | [FA]2 [EG]4 | %12
w: ||||
 [Ec]>[Ec] [Fc]3 [FA] | [FB]>[Fc] [Fd]4 | [Ff]>[Fd] [Fc]3 [FA] | [CG]>[CF] [CF]4- | [CF]4 z2 |] %17
w: |||||
V:2
 C>A, D3 C | B,>A, C2 C2 | C>C C3 C | C>[K:bass]B, A,4 | C>A, D3 C | B,>A,[K:treble] C2 C2 | %6
 C>C CC C2 | B,2 A,4 | A,>A, B,3 B, | D>B, A,4 | A,>A, B,B,[K:treble] C2 | C2 C4 | %12
 G,>A,[K:bass] A,3 C | B,>A, B,4 | D>B, A,3 C | B,>A, A,4- | A,4 z2 |] %17
V:3
 F,>F, F,3 F, | F,>F, C,2 C,2 | C,>C, C,3 C, | F,>F, F,4 | F,>F, F,3 F, | F,>F, C,2 C,2 | %6
 C,>C, C,C, C,2 | C,2 F,4 | F,>F, B,,3 B,, | B,,>B,, F,4 | F,>F, z2 A,2 | F,2 C,4 | C,>C, F,3 _E, | %13
 D,>C, B,,4 | B,,>B,, C,3 C, | C,>F, F,4- | F,4 z2 |] %17

